frontend/svg/icon.svg

<?xml version="1.0" encoding="UTF-8" standalone="no"?>
<svg
   xmlns:dc="http://purl.org/dc/elements/1.1/"
   xmlns:cc="http://creativecommons.org/ns#"
   xmlns:rdf="http://www.w3.org/1999/02/22-rdf-syntax-ns#"
   xmlns:svg="http://www.w3.org/2000/svg"
   xmlns="http://www.w3.org/2000/svg"
   xmlns:xlink="http://www.w3.org/1999/xlink"
   xmlns:sodipodi="http://sodipodi.sourceforge.net/DTD/sodipodi-0.dtd"
   xmlns:inkscape="http://www.inkscape.org/namespaces/inkscape"
   width="64"
   height="64"
   viewBox="0 0 16.933333 16.933334"
   version="1.1"
   id="svg8"
   inkscape:version="1.0.2 (e86c870879, 2021-01-15, custom)"
   sodipodi:docname="icon.svg"
   inkscape:export-filename="D:\Downloads\icon_16.png"
   inkscape:export-xdpi="24.000002"
   inkscape:export-ydpi="24.000002">
  <defs
     id="defs2">
    <linearGradient
       inkscape:collect="always"
       id="linearGradient883">
      <stop
         style="stop-color:#e4dffc;stop-opacity:1"
         offset="0"
         id="stop879" />
      <stop
         style="stop-color:#671db9;stop-opacity:1"
         offset="0.51316601"
         id="stop887" />
      <stop
         style="stop-color:#9632c6;stop-opacity:1;"
         offset="0.69587874"
         id="stop891" />
      <stop
         style="stop-color:#dc93eb;stop-opacity:1"
         offset="1"
         id="stop881" />
    </linearGradient>
    <rect
       x="-0.67615609"
       y="-16.350684"
       width="81.569011"
       height="28.767368"
       id="rect858" />
    <rect
       x="21.145245"
       y="3.5651866"
       width="112.8566"
       height="34.176617"
       id="rect843" />
    <linearGradient
       inkscape:collect="always"
       id="linearGradient841">
      <stop
         style="stop-color:#3e61be;stop-opacity:1"
         offset="0"
         id="stop837" />
      <stop
         style="stop-color:#171a71;stop-opacity:1"
         offset="1"
         id="stop839" />
    </linearGradient>
    <rect
       x="-75.382189"
       y="42.545251"
       width="194.45178"
       height="63.675107"
       id="rect846" />
    <rect
       x="-71.171963"
       y="-6.0571883"
       width="100.65028"
       height="27.055441"
       id="rect840" />
    <rect
       x="0.01323625"
       y="0.01323625"
       width="16.906861"
       height="16.906861"
       id="rect848" />
    <linearGradient
       inkscape:collect="always"
       xlink:href="#linearGradient841"
       id="linearGradient843"
       x1="8.4789"
       y1="1.5235524"
       x2="8.4789"
       y2="15.864817"
       gradientUnits="userSpaceOnUse" />
    <linearGradient
       inkscape:collect="always"
       xlink:href="#linearGradient883"
       id="linearGradient895"
       gradientUnits="userSpaceOnUse"
       x1="15.049307"
       y1="-13.78021"
       x2="15.049307"
       y2="-3.1212552"
       gradientTransform="matrix(0.45393387,0,0,0.5817675,0.95493755,13.55416)" />
  </defs>
  <sodipodi:namedview
     id="base"
     pagecolor="#ffffff"
     bordercolor="#666666"
     borderopacity="1.0"
     inkscape:pageopacity="0.0"
     inkscape:pageshadow="2"
     inkscape:zoom="12.174558"
     inkscape:cx="32.791722"
     inkscape:cy="38.122355"
     inkscape:document-units="mm"
     inkscape:current-layer="layer1"
     inkscape:document-rotation="0"
     showgrid="false"
     units="px"
     inkscape:window-width="1920"
     inkscape:window-height="1017"
     inkscape:window-x="-8"
     inkscape:window-y="-8"
     inkscape:window-maximized="1"
     inkscape:snap-global="false" />
  <metadata
     id="metadata5">
    <rdf:RDF>
      <cc:Work
         rdf:about="">
        <dc:format>image/svg+xml</dc:format>
        <dc:type
           rdf:resource="http://purl.org/dc/dcmitype/StillImage" />
        <dc:title />
      </cc:Work>
    </rdf:RDF>
  </metadata>
  <g
     inkscape:label="Layer 1"
     inkscape:groupmode="layer"
     id="layer1">
    <rect
       style="fill:url(#linearGradient843);fill-opacity:1;stroke:none;stroke-width:0.126197;stroke-linecap:round;stroke-linejoin:round;stroke-miterlimit:4;stroke-dasharray:none;stroke-opacity:1"
       id="rect833"
       width="16.933332"
       height="16.933332"
       x="-1.7347235e-18"
       y="-1.7347235e-18"
       ry="4.2310505" />
    <path
       id="path862-3"
       style="font-style:normal;font-variant:normal;font-weight:normal;font-stretch:normal;font-size:10.5833px;line-height:1.25;font-family:Glasten;-inkscape-font-specification:Glasten;letter-spacing:0px;word-spacing:0px;white-space:pre;fill:#d918ff;fill-opacity:0.90361398;stroke:none;stroke-width:0.494393"
       sodipodi:type="inkscape:offset"
       inkscape:radius="0.061132465"
       inkscape:original="M 14.470703 3.5566406 C 14.275869 3.5566406 14.095934 3.6197708 13.929688 3.7441406 C 13.764192 3.8685097 13.632197 4.0369347 13.535156 4.25 C 13.438126 4.4630652 13.390625 4.6926691 13.390625 4.9414062 C 13.390625 5.1351898 13.414444 5.3096242 13.464844 5.4648438 C 13.516004 5.620063 13.582818 5.7533741 13.664062 5.8632812 C 13.746063 5.9731872 13.832805 6.061419 13.923828 6.1289062 C 14.015598 6.1963932 14.10445 6.2465178 14.189453 6.2792969 L 14.496094 5.421875 C 14.492394 5.418965 14.47206 5.408918 14.4375 5.390625 C 14.4029 5.371342 14.370684 5.3532895 14.339844 5.3359375 C 14.279654 5.3031575 14.23097 5.251031 14.193359 5.1796875 C 14.156499 5.1073805 14.138672 5.0272108 14.138672 4.9414062 C 14.138672 4.8228225 14.170435 4.7225731 14.234375 4.640625 C 14.299065 4.557712 14.377423 4.5175781 14.470703 4.5175781 C 14.563983 4.5175781 14.64309 4.5586744 14.707031 4.640625 C 14.770971 4.722573 14.802734 4.8218583 14.802734 4.9414062 L 15.550781 4.9414062 C 15.550781 4.7534078 15.522457 4.574967 15.466797 4.40625 C 15.411887 4.2365691 15.335625 4.0891869 15.236328 3.9628906 C 15.137028 3.835629 15.021069 3.7354058 14.888672 3.6640625 C 14.757029 3.5917552 14.617393 3.5566406 14.470703 3.5566406 z M 1.5898438 3.5625 L 1.5898438 4.9316406 L 4.4121094 8.5917969 L 4.4121094 3.671875 L 3.6621094 3.671875 L 3.6621094 6.2578125 L 1.5898438 3.5625 z M 10.740234 3.5625 L 10.167969 5.375 L 10.587891 6.6230469 L 10.740234 6.1445312 L 11.513672 8.5917969 L 11.917969 7.3105469 L 10.740234 3.5625 z M 5.3359375 3.671875 L 5.3359375 8.484375 L 6.0839844 8.484375 L 6.0839844 3.671875 L 5.3359375 3.671875 z M 6.484375 3.671875 L 6.484375 4.6289062 L 8.0351562 4.6289062 L 8.0351562 3.671875 L 6.484375 3.671875 z M 8.4140625 3.671875 L 9.9667969 8.5917969 L 10.373047 7.3144531 L 9.2265625 3.671875 L 8.4140625 3.671875 z M 12.253906 3.671875 L 11.744141 5.375 L 12.130859 6.6191406 L 13.064453 3.671875 L 12.253906 3.671875 z M 6.484375 5.59375 L 6.484375 6.5546875 L 8.0351562 6.5546875 L 8.0351562 5.59375 L 6.484375 5.59375 z M 14.861328 5.6308594 L 14.554688 6.5 C 14.790143 6.6185838 14.908203 6.8070644 14.908203 7.0664062 C 14.908203 7.2196979 14.865066 7.3510302 14.779297 7.4609375 C 14.693537 7.5708435 14.590312 7.625 14.470703 7.625 C 14.351848 7.625 14.248617 7.5708434 14.162109 7.4609375 C 14.075599 7.3510315 14.033203 7.2196979 14.033203 7.0664062 L 13.275391 7.0664062 C 13.275391 7.3382818 13.32873 7.5918964 13.435547 7.8261719 C 13.54312 8.0594834 13.689497 8.2439577 13.873047 8.3808594 C 14.056597 8.5177612 14.255559 8.5859375 14.470703 8.5859375 C 14.684344 8.5859375 14.882407 8.5187496 15.064453 8.3828125 C 15.24725 8.2468749 15.391979 8.0614365 15.498047 7.828125 C 15.604114 7.5938495 15.65625 7.3402101 15.65625 7.0664062 C 15.65625 6.8504489 15.623595 6.6459443 15.556641 6.453125 C 15.490443 6.2593403 15.397256 6.0909411 15.275391 5.9492188 C 15.154278 5.8065331 15.01554 5.7002737 14.861328 5.6308594 z M 1.5898438 5.6699219 L 1.5898438 8.484375 L 2.3378906 8.484375 L 2.3378906 6.640625 L 1.5898438 5.6699219 z M 6.484375 7.5253906 L 6.484375 8.484375 L 8.0351562 8.484375 L 8.0351562 7.5253906 L 6.484375 7.5253906 z "
       transform="matrix(1.0394383,0,0,1.0394383,-0.45081567,2.1324996)"
       d="m 14.470703,3.4960938 c -0.208039,0 -0.402882,0.068119 -0.578125,0.1992187 -0.174206,0.1309148 -0.311438,0.3082611 -0.412109,0.5292969 -0.100777,0.221292 -0.150391,0.4602768 -0.150391,0.7167968 0,0.1987931 0.02337,0.3803348 0.07617,0.5429688 0.05286,0.1603645 0.123218,0.2999901 0.208984,0.4160156 0.08498,0.1138987 0.174911,0.2057407 0.271485,0.2773438 0.0953,0.070085 0.19007,0.123042 0.28125,0.1582031 a 0.06113858,0.06113858 0 0 0 0.07813,-0.035156 l 0.30664,-0.8574218 a 0.06113858,0.06113858 0 0 0 -0.01953,-0.070312 c -9.25e-4,-7.275e-4 -0.0099,-0.00572 -0.01367,-0.00781 -0.0038,-0.00209 -0.0086,-0.00516 -0.01367,-0.00781 -0.01014,-0.00531 -0.02207,-0.012492 -0.03906,-0.021484 v 0.00195 c -0.03452,-0.01924 -0.06688,-0.037372 -0.09766,-0.054687 -0.04806,-0.026171 -0.08806,-0.068744 -0.121094,-0.1308593 v -0.00195 c -0.03161,-0.062689 -0.04883,-0.1323268 -0.04883,-0.2089844 0,-0.1076673 0.02888,-0.1930462 0.08398,-0.2636718 0.05585,-0.07158 0.111755,-0.099609 0.1875,-0.099609 0.07532,0 0.132505,0.029124 0.1875,0.099609 0.05525,0.070809 0.08399,0.1549522 0.08399,0.2636718 a 0.06113858,0.06113858 0 0 0 0.06055,0.060547 h 0.748047 a 0.06113858,0.06113858 0 0 0 0.06055,-0.060547 c 0,-0.1941385 -0.02819,-0.3796515 -0.08594,-0.5546874 C 15.468568,4.2111284 15.389336,4.0582877 15.285156,3.9257812 15.181233,3.7925944 15.058291,3.6849888 14.917969,3.609375 v 0.00195 C 14.777657,3.5342596 14.627149,3.4960938 14.470703,3.4960938 Z M 1.5839844,3.5019531 A 0.06113858,0.06113858 0 0 0 1.5292969,3.5625 v 1.3691406 a 0.06113858,0.06113858 0 0 0 0.011719,0.037109 l 2.8222656,3.6601562 a 0.06113858,0.06113858 0 0 0 0.109375,-0.037109 V 3.671875 a 0.06113858,0.06113858 0 0 0 -0.060547,-0.060547 h -0.75 a 0.06113858,0.06113858 0 0 0 -0.060547,0.060547 v 2.40625 L 1.6386719,3.5253906 a 0.06113858,0.06113858 0 0 0 -0.054687,-0.023437 z m 9.1503906,0 a 0.06113858,0.06113858 0 0 0 -0.05273,0.042969 l -0.572266,1.8125 a 0.06113858,0.06113858 0 0 0 0,0.037109 l 0.419922,1.2480469 a 0.06113858,0.06113858 0 0 0 0.117187,-0.00195 l 0.09375,-0.2929688 0.714844,2.2617188 a 0.06113858,0.06113858 0 0 0 0.117188,0 l 0.404296,-1.28125 a 0.06113858,0.06113858 0 0 0 0,-0.035156 L 10.798828,3.5449219 a 0.06113858,0.06113858 0 0 0 -0.06445,-0.042969 z m -5.3984375,0.109375 a 0.06113858,0.06113858 0 0 0 -0.060547,0.060547 v 4.8125 a 0.06113858,0.06113858 0 0 0 0.060547,0.060547 h 0.7480469 a 0.06113858,0.06113858 0 0 0 0.060547,-0.060547 v -4.8125 a 0.06113858,0.06113858 0 0 0 -0.060547,-0.060547 z m 1.1484375,0 a 0.06113858,0.06113858 0 0 0 -0.060547,0.060547 v 0.9570312 a 0.06113858,0.06113858 0 0 0 0.060547,0.060547 h 1.5507812 a 0.06113858,0.06113858 0 0 0 0.060547,-0.060547 V 3.671875 a 0.06113858,0.06113858 0 0 0 -0.060547,-0.060547 z m 1.9296875,0 a 0.06113858,0.06113858 0 0 0 -0.058594,0.078125 L 9.9082031,8.609375 a 0.06113858,0.06113858 0 0 0 0.1171879,0 l 0.40625,-1.2773438 a 0.06113858,0.06113858 0 0 0 0,-0.035156 L 9.2851562,3.6542969 a 0.06113858,0.06113858 0 0 0 -0.058594,-0.042969 z m 3.8398435,0 a 0.06113858,0.06113858 0 0 0 -0.05859,0.042969 l -0.509765,1.703125 a 0.06113858,0.06113858 0 0 0 0,0.035156 l 0.386719,1.2441407 a 0.06113858,0.06113858 0 0 0 0.117187,0 l 0.933594,-2.9472657 a 0.06113858,0.06113858 0 0 0 -0.05859,-0.078125 z M 6.484375,5.5332031 A 0.06113858,0.06113858 0 0 0 6.4238281,5.59375 v 0.9609375 a 0.06113858,0.06113858 0 0 0 0.060547,0.060547 h 1.5507812 a 0.06113858,0.06113858 0 0 0 0.060547,-0.060547 V 5.59375 a 0.06113858,0.06113858 0 0 0 -0.060547,-0.060547 z m 8.382813,0.037109 a 0.06113858,0.06113858 0 0 0 -0.06445,0.041016 l -0.30664,0.8691407 a 0.06113858,0.06113858 0 0 0 0.03125,0.074219 c 0.219545,0.110571 0.320312,0.2709298 0.320312,0.5117187 0,0.1418231 -0.03983,0.2582981 -0.117187,0.3574219 -0.07712,0.098828 -0.15861,0.140625 -0.259766,0.140625 -0.100285,0 -0.18184,-0.041623 -0.259765,-0.140625 C 14.133063,7.3248932 14.09375,7.2084263 14.09375,7.0664062 a 0.06113858,0.06113858 0 0 0 -0.06055,-0.060547 h -0.757812 a 0.06113858,0.06113858 0 0 0 -0.06055,0.060547 c 0,0.2798713 0.05548,0.5427174 0.166015,0.7851563 0.111272,0.2413336 0.262917,0.4348005 0.455079,0.578125 0.192724,0.1437445 0.406706,0.2167969 0.634765,0.2167969 0.226458,0 0.439519,-0.071966 0.630859,-0.2148438 0.191761,-0.1426034 0.341484,-0.3368505 0.451172,-0.578125 a 0.06113858,0.06113858 0 0 0 0.002,0 c 0.1098,-0.2425214 0.162109,-0.5055451 0.162109,-0.7871094 0,-0.2221198 -0.03224,-0.4331586 -0.101563,-0.6328124 C 15.546865,6.2334535 15.449694,6.058349 15.322266,5.9101562 15.195937,5.7613264 15.04971,5.6475847 14.886719,5.5742188 a 0.06113858,0.06113858 0 0 0 -0.01953,-0.00391 z M 1.5839844,5.609375 a 0.06113858,0.06113858 0 0 0 -0.054687,0.060547 V 8.484375 a 0.06113858,0.06113858 0 0 0 0.060547,0.060547 H 2.3378906 A 0.06113858,0.06113858 0 0 0 2.3984375,8.484375 V 6.640625 A 0.06113858,0.06113858 0 0 0 2.3867188,6.6035156 L 1.6386719,5.6328125 A 0.06113858,0.06113858 0 0 0 1.5839844,5.609375 Z M 6.484375,7.4648438 a 0.06113858,0.06113858 0 0 0 -0.060547,0.060547 V 8.484375 a 0.06113858,0.06113858 0 0 0 0.060547,0.060547 H 8.0351562 A 0.06113858,0.06113858 0 0 0 8.0957031,8.484375 V 7.5253906 a 0.06113858,0.06113858 0 0 0 -0.060547,-0.060547 z" />
    <path
       id="path862"
       style="font-style:normal;font-variant:normal;font-weight:normal;font-stretch:normal;font-size:10.5833px;line-height:1.25;font-family:Glasten;-inkscape-font-specification:Glasten;letter-spacing:0px;word-spacing:0px;white-space:pre;fill:url(#linearGradient895);fill-opacity:1;stroke:none;stroke-width:0.513891"
       d="m 14.475113,5.714309 c -0.202518,0 -0.38993,0.064435 -0.562734,0.1937094 -0.172022,0.129274 -0.30875,0.3047666 -0.409618,0.5262347 -0.100857,0.2214683 -0.151146,0.4613978 -0.151146,0.7199447 0,0.2014261 0.02638,0.3825611 0.07877,0.5439023 0.05318,0.1613409 0.121836,0.2990479 0.206285,0.4132898 0.08523,0.1142405 0.175185,0.2068502 0.269798,0.2769989 0.09539,0.070149 0.187348,0.1217791 0.275704,0.155851 l 0.319027,-0.8909392 c -0.0038,-0.00302 -0.02414,-0.014426 -0.06006,-0.033441 -0.03596,-0.020043 -0.06986,-0.038752 -0.101917,-0.056789 C 14.276662,7.5289976 14.225694,7.4750666 14.1866,7.4009094 14.14829,7.3257504 14.12949,7.243386 14.12949,7.1541976 c 0,-0.1232606 0.03298,-0.2277846 0.09944,-0.3129646 0.06724,-0.086183 0.149207,-0.1293512 0.246166,-0.1293512 0.09696,0 0.178718,0.042907 0.245181,0.1280896 0.06646,0.08518 0.09994,0.1899637 0.09994,0.3142265 h 0.77739 c 0,-0.1954129 -0.02879,-0.3811506 -0.08665,-0.5565216 C 15.453892,6.4213041 15.373924,6.2677101 15.270711,6.136433 15.167495,6.0041523 15.04696,5.9007801 14.909341,5.8266232 14.772506,5.7514643 14.627582,5.7143104 14.475106,5.7143104 Z M 1.0856991,5.719984 V 7.1434677 L 4.0190029,10.948262 V 5.8329323 H 3.2401363 v 2.6892235 z m 9.5108359,0 -0.594736,1.8834657 0.437683,1.2985504 0.157053,-0.4984719 0.804468,2.5447308 0.419958,-1.3332552 z M 4.9795392,5.8329326 V 10.835317 H 5.7584056 V 5.8329323 Z m 1.1939009,0 V 6.829245 H 7.7863142 V 5.8329323 Z m 2.0057535,0 1.6138588,5.1153294 0.4234036,-1.3288378 -1.1929159,-3.786492 z m 3.9913214,0 -0.528763,1.7705212 0.402234,1.2928713 0.96989,-3.0633925 z M 6.17344,7.8318674 V 8.8300727 H 7.7863142 V 7.8318674 Z m 8.707845,0.039121 -0.31903,0.9022971 c 0.244742,0.1232606 0.366787,0.3191313 0.366787,0.5887011 0,0.1593371 -0.04427,0.2965243 -0.133422,0.4107661 -0.08914,0.1142405 -0.196181,0.170995 -0.320507,0.170995 -0.123543,0 -0.230095,-0.056753 -0.320014,-0.170995 -0.08992,-0.1142404 -0.1349,-0.251429 -0.1349,-0.4107661 h -0.787236 c 0,0.2825977 0.05587,0.5458371 0.1669,0.7893525 0.111815,0.242513 0.26314,0.435042 0.453928,0.577343 0.190789,0.142302 0.397693,0.213271 0.621322,0.213271 0.222066,0 0.427664,-0.07071 0.61689,-0.212009 0.190006,-0.141298 0.340231,-0.332938 0.450482,-0.57545 0.11025,-0.2435157 0.165422,-0.5079053 0.165422,-0.7925075 0,-0.2244744 -0.03478,-0.4368625 -0.104374,-0.6372863 -0.06881,-0.201427 -0.166264,-0.3757692 -0.292935,-0.5230809 -0.12589,-0.148313 -0.26902,-0.2584787 -0.429313,-0.330631 z M 1.0856991,7.9101083 V 10.835317 H 1.8630886 V 8.9190403 Z M 6.17344,9.8390047 V 10.835317 H 7.7863142 V 9.8390047 Z" />
    <text
       xml:space="preserve"
       id="text846"
       style="fill:black;fill-opacity:1;stroke:none;font-family:sans-serif;font-style:normal;font-weight:normal;font-size:10.58333333px;line-height:1.25;letter-spacing:0px;word-spacing:0px;white-space:pre;shape-inside:url(#rect848);" />
  </g>
</svg>

<svg width="64" height="64" version="1.1" viewBox="0 0 16.9 16.9" xmlns="http://www.w3.org/2000/svg" xmlns:xlink="http://www.w3.org/1999/xlink">
 <defs>
  <linearGradient id="linearGradient84355" x1="8.48" x2="8.48" y1="1.52" y2="15.9" gradientUnits="userSpaceOnUse">
   <stop stop-color="#3e61be" offset="0"/>
   <stop stop-color="#171a71" offset="1"/>
  </linearGradient>
  <linearGradient id="linearGradient89512" x1="15" x2="15" y1="-13.8" y2="-3.12" gradientTransform="matrix(.454 0 0 .582 .955 13.6)" gradientUnits="userSpaceOnUse">
   <stop stop-color="#e4dffc" offset="0"/>
   <stop stop-color="#671db9" offset=".513"/>
   <stop stop-color="#9632c6" offset=".696"/>
   <stop stop-color="#dc93eb" offset="1"/>
  </linearGradient>
 </defs>
 <rect x="-1.73e-18" y="-1.73e-18" width="16.9" height="16.9" ry="4.23" fill="url(#linearGradient84355)"/>
 <path transform="matrix(1.04 0 0 1.04 -.451 2.13)" d="m14.5 3.5c-.208 0-.403.0681-.578.199-.174.131-.311.308-.412.529-.101.221-.15.46-.15.717 0 .199.0234.38.0762.543.0529.16.123.3.209.416.085.114.175.206.271.277.0953.0701.19.123.281.158a.0611.0611 0 00.0781-.0352l.307-.857a.0611.0611 0 00-.0195-.0703c-.000925-.000728-.0099-.00572-.0137-.00781-.0038-.00209-.0086-.00516-.0137-.00781-.0101-.00531-.0221-.0125-.0391-.0215v.00195c-.0345-.0192-.0669-.0374-.0977-.0547-.0481-.0262-.0881-.0687-.121-.131v-.00195c-.0316-.0627-.0488-.132-.0488-.209 0-.108.0289-.193.084-.264.0558-.0716.112-.0996.188-.0996.0753 0 .133.0291.188.0996.0552.0708.084.155.084.264a.0611.0611 0 00.0606.0605h.748a.0611.0611 0 00.0606-.0605c0-.194-.0282-.38-.0859-.555-.0568-.176-.136-.328-.24-.461-.104-.133-.227-.241-.367-.316v.00195c-.14-.0771-.291-.115-.447-.115zm-12.9.00586a.0611.0611 0 00-.0547.0605v1.37a.0611.0611 0 00.0117.0371l2.82 3.66a.0611.0611 0 00.109-.0371v-4.92a.0611.0611 0 00-.0605-.0605h-.75a.0611.0611 0 00-.0605.0605v2.41l-1.96-2.55a.0611.0611 0 00-.0547-.0234zm9.15 0a.0611.0611 0 00-.0527.043l-.572 1.81a.0611.0611 0 000 .0371l.42 1.25a.0611.0611 0 00.117-.00195l.0938-.293.715 2.26a.0611.0611 0 00.117 0l.404-1.28a.0611.0611 0 000-.0352l-1.18-3.75a.0611.0611 0 00-.0644-.043zm-5.4.109a.0611.0611 0 00-.0605.0605v4.81a.0611.0611 0 00.0605.0605h.748a.0611.0611 0 00.0605-.0605v-4.81a.0611.0611 0 00-.0605-.0605zm1.15 0a.0611.0611 0 00-.0605.0605v.957a.0611.0611 0 00.0605.0605h1.55a.0611.0611 0 00.0605-.0605v-.957a.0611.0611 0 00-.0605-.0605zm1.93 0a.0611.0611 0 00-.0586.0781l1.55 4.92a.0611.0611 0 00.117 0l.406-1.28a.0611.0611 0 000-.0352l-1.15-3.64a.0611.0611 0 00-.0586-.043zm3.84 0a.0611.0611 0 00-.0586.043l-.51 1.7a.0611.0611 0 000 .0352l.387 1.24a.0611.0611 0 00.117 0l.934-2.95a.0611.0611 0 00-.0586-.0781zm-5.77 1.92a.0611.0611 0 00-.0605.0605v.961a.0611.0611 0 00.0605.0605h1.55a.0611.0611 0 00.0605-.0605v-.961a.0611.0611 0 00-.0605-.0605zm8.38.0371a.0611.0611 0 00-.0644.041l-.307.869a.0611.0611 0 00.0312.0742c.22.111.32.271.32.512 0 .142-.0398.258-.117.357-.0771.0988-.159.141-.26.141-.1 0-.182-.0416-.26-.141-.0779-.0989-.117-.215-.117-.357a.0611.0611 0 00-.0606-.0605h-.758a.0611.0611 0 00-.0606.0605c0 .28.0555.543.166.785.111.241.263.435.455.578.193.144.407.217.635.217.226 0 .44-.072.631-.215.192-.143.341-.337.451-.578a.0611.0611 0 00.002 0c.11-.243.162-.506.162-.787 0-.222-.0322-.433-.102-.633-.0684-.2-.166-.375-.293-.523-.126-.149-.273-.263-.436-.336a.0611.0611 0 00-.0195-.00391zm-13.3.0391a.0611.0611 0 00-.0547.0605v2.81a.0611.0611 0 00.0605.0605h.748a.0611.0611 0 00.0605-.0605v-1.84a.0611.0611 0 00-.0117-.0371l-.748-.971a.0611.0611 0 00-.0547-.0234zm4.9 1.86a.0611.0611 0 00-.0605.0605v.959a.0611.0611 0 00.0605.0605h1.55a.0611.0611 0 00.0605-.0605v-.959a.0611.0611 0 00-.0605-.0605z" fill="#d918ff" fill-opacity=".904" style="white-space:pre"/>
 <path d="m14.5 5.71c-.203 0-.39.0644-.563.194-.172.129-.309.305-.41.526-.101.221-.151.461-.151.72 0 .201.0264.383.0788.544.0532.161.122.299.206.413.0852.114.175.207.27.277.0954.0701.187.122.276.156l.319-.891c-.0038-.00302-.0241-.0144-.0601-.0334-.036-.02-.0699-.0388-.102-.0568-.0626-.0341-.114-.088-.153-.162-.0383-.0752-.0571-.158-.0571-.247 0-.123.033-.228.0994-.313.0672-.0862.149-.129.246-.129.097 0 .179.0429.245.128.0665.0852.0999.19.0999.314h.777c0-.195-.0288-.381-.0866-.557-.0571-.176-.137-.33-.24-.461-.103-.132-.224-.236-.361-.31-.137-.0752-.282-.112-.434-.112zm-13.4.00568v1.42l2.93 3.8v-5.12h-.779v2.69zm9.51 0-.595 1.88.438 1.3.157-.498.804 2.54.42-1.33zm-5.62.113v5h.779v-5zm1.19 0v.996h1.61v-.996zm2.01 0 1.61 5.12.423-1.33-1.19-3.79zm3.99 0-.529 1.77.402 1.29.97-3.06zm-6 2v.998h1.61v-.998zm8.71.0391-.319.902c.245.123.367.319.367.589 0 .159-.0443.297-.133.411-.0891.114-.196.171-.321.171-.124 0-.23-.0568-.32-.171-.0899-.114-.135-.251-.135-.411h-.787c0 .283.0559.546.167.789.112.243.263.435.454.577.191.142.398.213.621.213.222 0 .428-.0707.617-.212.19-.141.34-.333.45-.575.11-.244.165-.508.165-.793 0-.224-.0348-.437-.104-.637-.0688-.201-.166-.376-.293-.523-.126-.148-.269-.258-.429-.331zm-13.8.0391v2.93h.777v-1.92zm5.09 1.93v.996h1.61v-.996z" fill="url(#linearGradient89512)" style="white-space:pre"/>
 <text fill="black" font-family="sans-serif" font-size="10.6px" letter-spacing="0px" word-spacing="0px" style="line-height:1.25;shape-inside:url(#rect848);white-space:pre" xml:space="preserve"/>
</svg>
